X: 9688
T:Sporting Molly
T:Galway Bay
R:Reel
Z:id:hn-reel-74
M:C|
K:EDor
(3GFE BE (3GFE BE|(3FED AD (3FED AD|(3GFE BE (3GFE BG|AGFG E2EF|\
(3GFE BE (3GFE BG|ABAG FEDF|~G3F GBdB|AGFG E2EF::\
~G3F GBdB|ABAG FGA2|Beed efge|fedf e2ef|\
efed BcdB|ABAG FEDF|~G3F GBdB|AGFG E2EF:|
